SVG/sort-amount-asc.svg

<?xml version="1.0" encoding="utf-8"?>
<!-- Generated by IcoMoon.io -->
<!DOCTYPE svg PUBLIC "-//W3C//DTD SVG 1.1//EN" "http://www.w3.org/Graphics/SVG/1.1/DTD/svg11.dtd">
<svg version="1.1" xmlns="http://www.w3.org/2000/svg" xmlns:xlink="http://www.w3.org/1999/xlink" width="14" height="14" viewBox="0 0 14 14">
<path fill="#444444" d="M5.75 11.25q0 0.094-0.078 0.187l-2.492 2.492q-0.078 0.070-0.18 0.070-0.094 0-0.18-0.070l-2.5-2.5q-0.117-0.125-0.055-0.273 0.062-0.156 0.234-0.156h1.5v-10.75q0-0.109 0.070-0.18t0.18-0.070h1.5q0.109 0 0.18 0.070t0.070 0.18v10.75h1.5q0.109 0 0.18 0.070t0.070 0.18zM14 12.25v1.5q0 0.109-0.070 0.18t-0.18 0.070h-6.5q-0.109 0-0.18-0.070t-0.070-0.18v-1.5q0-0.109 0.070-0.18t0.18-0.070h6.5q0.109 0 0.18 0.070t0.070 0.18zM12.5 8.25v1.5q0 0.109-0.070 0.18t-0.18 0.070h-5q-0.109 0-0.18-0.070t-0.070-0.18v-1.5q0-0.109 0.070-0.18t0.18-0.070h5q0.109 0 0.18 0.070t0.070 0.18zM11 4.25v1.5q0 0.109-0.070 0.18t-0.18 0.070h-3.5q-0.109 0-0.18-0.070t-0.070-0.18v-1.5q0-0.109 0.070-0.18t0.18-0.070h3.5q0.109 0 0.18 0.070t0.070 0.18zM9.5 0.25v1.5q0 0.109-0.070 0.18t-0.18 0.070h-2q-0.109 0-0.18-0.070t-0.070-0.18v-1.5q0-0.109 0.070-0.18t0.18-0.070h2q0.109 0 0.18 0.070t0.070 0.18z"></path>
</svg>

<svg xmlns="http://www.w3.org/2000/svg" viewBox="0 0 14 14"><path d="M5.75 11.25q0 .094-.078.187L3.18 13.93Q3.102 14 3 14q-.094 0-.18-.07l-2.5-2.5q-.117-.126-.055-.274Q.327 11 .5 11H2V.25q0-.11.07-.18T2.25 0h1.5q.108 0 .18.07T4 .25V11h1.5q.108 0 .18.07t.07.18zm8.25 1v1.5q0 .11-.07.18t-.18.07h-6.5q-.11 0-.18-.07T7 13.75v-1.5q0-.11.07-.18t.18-.07h6.5q.11 0 .18.07t.07.18zm-1.5-4v1.5q0 .11-.07.18t-.18.07h-5q-.11 0-.18-.07T7 9.75v-1.5q0-.11.07-.18T7.25 8h5q.11 0 .18.07t.07.18zm-1.5-4v1.5q0 .11-.07.18t-.18.07h-3.5q-.11 0-.18-.07T7 5.75v-1.5q0-.11.07-.18T7.25 4h3.5q.11 0 .18.07t.07.18zm-1.5-4v1.5q0 .11-.07.18T9.25 2h-2q-.11 0-.18-.07T7 1.75V.25q0-.11.07-.18T7.25 0h2q.11 0 .18.07t.07.18z" /></svg>
